public/logo.svg

<svg width="175" height="161" viewBox="0 0 175 161" fill="none" xmlns="http://www.w3.org/2000/svg">
<path fill-rule="evenodd" clip-rule="evenodd" d="M0 161V50.4421C0.92139 36.392 11.6095 6.63348 46.9909 0H174.834C176.216 15.6624 169.582 49.4747 131.989 59.4249C130.146 75.3176 117.063 107.794 79.4699 110.558C74.4023 127.372 51.4136 161 0 161ZM46.9909 10.3648C21.0077 15.8927 12.2084 39.3863 11.0567 50.4421H127.152C154.794 43.2558 163.547 20.7296 164.468 10.3648H46.9909ZM11.0567 100.193V59.4249H120.932C120.011 71.402 110.429 96.4618 79.4699 100.884L11.0567 100.193ZM11.0567 110.558V150.635C46.4381 146.766 63.1152 122.305 67.0311 110.558H11.0567Z" fill="black"/>
</svg>

<svg width="175" height="161" viewBox="0 0 175 161" fill="none" xmlns="http://www.w3.org/2000/svg">
  <path fill-rule="evenodd" clip-rule="evenodd" d="M0 161V50.442C.921 36.392 11.61 6.633 46.99 0h127.844c1.382 15.662-5.252 49.475-42.845 59.425-1.843 15.893-14.926 48.369-52.52 51.133C74.403 127.372 51.415 161 0 161zM46.99 10.365c-25.982 5.528-34.782 29.021-35.933 40.077h116.095c27.642-7.186 36.395-29.712 37.316-40.077H46.991zm-35.933 89.828V59.425h109.875c-.921 11.977-10.503 37.037-41.462 41.459l-68.413-.691zm0 10.365v40.077c35.381-3.869 52.058-28.33 55.974-40.077H11.057z" fill="#000"/>
</svg>
